images_sukapura_svg/cmd/lc_freezepanesfirstrow.svg

<svg viewBox="0 0 24 24" xmlns="http://www.w3.org/2000/svg" xmlns:xlink="http://www.w3.org/1999/xlink"><filter id="a" color-interpolation-filters="sRGB" height="1.094553" width="1.097492" x="-.048746" y="-.047277"><feGaussianBlur stdDeviation=".36559322"/></filter><path d="m2.2809084 4.0179774 19.7190916-.0179774v16.347457l-19.7190916.01798z" filter="url(#a)" opacity=".15" stroke-width="1.015418"/><path d="m3 3v16h18v-16z" fill="#fff"/><path d="m8 4v3h-5v1h5v3h-5v1h5v3h-5v1h5v3h1v-3h6v3h1v-3h5v-1h-5v-3h5v-1h-5v-3h5v-1h-5v-3h-1v3h-6v-3zm1 4h6v3h-6zm0 4h6v3h-6z" fill="#bababa"/><path d="m2 3v1 15c0 .554.446 1 1 1h18c.554 0 1-.446 1-1v-15-1h-1-5-1-6-1-5zm1 1h5 1 6 1 5v3 1 3 1 3 1 3h-5-1-6-1-5v-3-1-3-1-3-1z" fill="#69696e"/><g fill="#ff9500"><path d="m7.0253906 4-4.0253906 2.4160156v.5839844h.9746094l4.0253906-2.4160156v-.5839844z" fill-rule="evenodd"/><path d="m2 3h20v1h-20z"/><path d="m2 7v1h7v-1zm13 0c.554 0 1 .446 1 1h6v-1z"/><path d="m2 3h1v5h-1z"/><path d="m8 4v3h1v-3z"/><path d="m15 4v3h1v-3z"/><path d="m21 4h1v3h-1z"/><path d="m9 7h7v1h-7z"/><g fill-rule="evenodd"><path d="m13.882812 4-4.882812 2.4414062v.5585938h1.117188l4.882812-2.4414062v-.5585938z"/><path d="m20.02539 4-4.02539 2.4160156v.5839844h.97461l4.02539-2.4160156v-.5839844z"/></g></g></svg>

<?xml version="1.0" encoding="UTF-8" standalone="no"?>
<svg
   xmlns:dc="http://purl.org/dc/elements/1.1/"
   xmlns:cc="http://creativecommons.org/ns#"
   xmlns:rdf="http://www.w3.org/1999/02/22-rdf-syntax-ns#"
   xmlns:svg="http://www.w3.org/2000/svg"
   xmlns="http://www.w3.org/2000/svg"
   xmlns:sodipodi="http://sodipodi.sourceforge.net/DTD/sodipodi-0.dtd"
   xmlns:inkscape="http://www.inkscape.org/namespaces/inkscape"
   viewBox="0 0 24 24"
   version="1.1"
   id="svg42"
   sodipodi:docname="lc_freezepanesfirstrow.svg"
   inkscape:export-filename="/home/rizmut/Dokumen/Rizmut/Github/libreoffice-style-sukapura/images_sukapura/cmd/lc_freezepanesfirstrow.png"
   inkscape:export-xdpi="96"
   inkscape:export-ydpi="96"
   inkscape:version="0.92.3 (unknown)">
  <metadata
     id="metadata48">
    <rdf:RDF>
      <cc:Work
         rdf:about="">
        <dc:format>image/svg+xml</dc:format>
        <dc:type
           rdf:resource="http://purl.org/dc/dcmitype/StillImage" />
        <dc:title></dc:title>
      </cc:Work>
    </rdf:RDF>
  </metadata>
  <defs
     id="defs46">
    <clipPath
       clipPathUnits="userSpaceOnUse"
       id="clipPath2957">
      <path
         d="m 8,7 h 8 v 5 H 8 Z"
         id="path2959"
         style="fill:#000000;fill-opacity:1;stroke:none;stroke-opacity:1"
         inkscape:connector-curvature="0"
         sodipodi:nodetypes="ccccc" />
    </clipPath>
    <filter
       style="color-interpolation-filters:sRGB"
       id="b"
       height="1.094553"
       width="1.097492"
       x="-0.048746001"
       y="-0.047277">
      <feGaussianBlur
         stdDeviation=".36559322"
         id="feGaussianBlur1010" />
    </filter>
    <clipPath
       clipPathUnits="userSpaceOnUse"
       id="clipPath2957-3">
      <path
         d="m 8,7 h 8 v 5 H 8 Z"
         id="path2959-6"
         style="fill:#000000;fill-opacity:1;stroke:none;stroke-opacity:1"
         inkscape:connector-curvature="0"
         sodipodi:nodetypes="ccccc" />
    </clipPath>
  </defs>
  <sodipodi:namedview
     pagecolor="#ffffff"
     bordercolor="#666666"
     borderopacity="1"
     objecttolerance="10"
     gridtolerance="10"
     guidetolerance="10"
     inkscape:pageopacity="0"
     inkscape:pageshadow="2"
     inkscape:window-width="1366"
     inkscape:window-height="699"
     id="namedview44"
     showgrid="true"
     inkscape:measure-start="0,0"
     inkscape:measure-end="0,0"
     inkscape:zoom="9.8333333"
     inkscape:cx="5.0173011"
     inkscape:cy="17.310423"
     inkscape:window-x="0"
     inkscape:window-y="0"
     inkscape:window-maximized="1"
     inkscape:current-layer="g1495"
     inkscape:snap-global="true">
    <inkscape:grid
       type="xygrid"
       id="grid2885" />
  </sodipodi:namedview>
  <g
     id="g1495">
    <path
       sodipodi:nodetypes="ccccc"
       id="path1013"
       d="M 2.2809084,4.0179774 22,4 v 16.347457 l -19.7190916,0.01798 z"
       style="opacity:0.15;stroke-width:1.01541805;filter:url(#b)"
       inkscape:connector-curvature="0" />
    <path
       sodipodi:nodetypes="ccccc"
       style="fill:#ffffff"
       inkscape:connector-curvature="0"
       id="path2"
       d="M 3,3 V 19 H 21 V 3 Z" />
    <path
       id="path4"
       d="M 8 4 L 8 7 L 3 7 L 3 8 L 8 8 L 8 11 L 3 11 L 3 12 L 8 12 L 8 15 L 3 15 L 3 16 L 8 16 L 8 19 L 9 19 L 9 16 L 15 16 L 15 19 L 16 19 L 16 16 L 21 16 L 21 15 L 16 15 L 16 12 L 21 12 L 21 11 L 16 11 L 16 8 L 21 8 L 21 7 L 16 7 L 16 4 L 15 4 L 15 7 L 9 7 L 9 4 L 8 4 z M 9 8 L 15 8 L 15 11 L 9 11 L 9 8 z M 9 12 L 15 12 L 15 15 L 9 15 L 9 12 z "
       style="fill:#bababa;fill-opacity:1" />
    <path
       id="path2897"
       d="M 2 3 L 2 4 L 2 19 C 2 19.554 2.446 20 3 20 L 21 20 C 21.554 20 22 19.554 22 19 L 22 4 L 22 3 L 21 3 L 16 3 L 15 3 L 9 3 L 8 3 L 3 3 L 2 3 z M 3 4 L 8 4 L 9 4 L 15 4 L 16 4 L 21 4 L 21 7 L 21 8 L 21 11 L 21 12 L 21 15 L 21 16 L 21 19 L 16 19 L 15 19 L 9 19 L 8 19 L 3 19 L 3 16 L 3 15 L 3 12 L 3 11 L 3 8 L 3 7 L 3 4 z "
       style="fill:#69696e;fill-opacity:1" />
    <g
       style="fill:#ff9500;fill-opacity:1"
       id="g38"
       fill="#eac282">
      <path
         style="fill:#ff9500;fill-opacity:1"
         id="path6"
         d="m7.0253906 4-4.0253906 2.4160156v.5839844h.9746094l4.0253906-2.4160156v-.5839844z"
         fill-rule="evenodd" />
      <path
         style="fill:#ff9500;fill-opacity:1"
         id="path18"
         d="m2 3h20v1h-20z" />
      <path
         style="fill:#ff9500;fill-opacity:1"
         id="path20"
         d="M 2,7 V 8 H 9 V 7 Z m 13,0 c 0.554,0 1,0.446 1,1 h 6 V 7 Z"
         inkscape:connector-curvature="0"
         sodipodi:nodetypes="cccccccccc" />
      <path
         style="fill:#ff9500;fill-opacity:1"
         id="path22"
         d="M 2,3 H 3 V 8 H 2 Z"
         inkscape:connector-curvature="0"
         sodipodi:nodetypes="ccccc" />
      <path
         style="fill:#ff9500;fill-opacity:1"
         id="path24"
         d="M 8,4 V 7 H 9 V 4 Z"
         inkscape:connector-curvature="0"
         sodipodi:nodetypes="ccccc" />
      <path
         style="fill:#ff9500;fill-opacity:1"
         id="path26"
         d="m15 4v3h1v-3z" />
      <path
         style="fill:#ff9500;fill-opacity:1"
         id="path28"
         d="m21 4h1v3h-1z" />
      <rect
         y="7"
         x="9"
         height="1"
         width="7"
         id="rect843"
         style="opacity:1;fill:#ff9500;fill-opacity:1;stroke:none;stroke-width:1;stroke-linecap:round;stroke-linejoin:round;stroke-miterlimit:4;stroke-dasharray:none;stroke-opacity:0" />
      <path
         inkscape:connector-curvature="0"
         style="fill:#ff9500;fill-opacity:1;fill-rule:evenodd"
         id="path14"
         d="M 13.882812,4 9,6.4414062 V 7 h 1.117188 L 15,4.5585938 V 4 Z" />
      <path
         inkscape:connector-curvature="0"
         style="fill:#ff9500;fill-opacity:1;fill-rule:evenodd"
         id="path16"
         d="M 20.02539,4 16,6.4160156 V 7 h 0.97461 L 21,4.5839844 V 4 Z" />
    </g>
  </g>
</svg>
